X:167
T:Fiddler Leahy's Reel
B:Terry "Cuz" Teahan "Sliabh Luachra on Parade" 1980
Z:Patrick Cavanagh
M:4/4
L:1/8
R:Reel
K:D
AF | EBBA B2BF | B/c/B GB dBAG | F/E/D AD BDAD | F/E/D FA dBAF | 
EBBA c2BA | B/c/d AB defg | a/g/f g/f/e dBAF | DEFD E2 :| 
B/c/d | eBB/A/B efgf | eBB/A/B gedB | A2Ac dAFB | A/B/A FA defd | 
eBB/A/B efgf | eBB/A/B defg | a/g/f g/f/e dBAF | DEFD E2 :|| 

